X:1
T:Passametzo
T:Passametzo
T:Elias Nicolaus Ammerbach (1530-1597)
C:Elias Nicolaus Ammerbach
%%score { ( 1 2 ) | ( 3 4 ) }
L:1/8
Q:1/4=72
M:4/4
K:F
V:1 treble nm="Cembalo" snm="Cbl."
V:2 treble 
V:3 bass 
V:4 bass 
V:1
 GA |: B4 B2 B2 | [FB]2 [Fd]2 [Fc]2 [DB]2 | A4 A2 A2 | AB c2 B2 A2 | G4 G2 ^F2 | %6
 [=EG]2 [FB]2 A2 G2 | ^F4 F2 F2 | ^F4 =F2 GA | B4 B2 B2 | B2 d2 c2 B2 | [FA]4 [EA]2 [DA]2 | %12
 A2 c2 B2 A2 | G2 cB AG FE | F2 G2 G2 ^F2 | G4 G2 G2 |1 G4 G2 GA :|2 G6 |: B2 | A2 A2 FG A2 | %20
 G2 G2 E^F G2 | ^F2 F2 F2 E2 | ^F4 F2 G2 | A3 G A2 _B2 | A2 =F2 G2 A2 | B4 B2 A2 | B4 A4 | %27
 G2 B2 A2 G2 | ^F2 G2 G2 F2 | G4 G2 G2 | G6 :| %31
V:2
 [C_E]2 |: F3 =E F2 G2 | x8 | F4 F2 E2 | F2 EF G2 F2 | D3 C B,C D2 | x4 FE DC | D3 C D2 D2 | %8
 D4 D2 x2 | x2 G2 D2 GA | B2 FG A2 G2 | x8 | F2 E2 F3 E | D2 E2 F2 D2 | D2 C2 D3 C | %15
 B,2 D2 _E2 C2 |1 D4 x4 :|2 D6 |: x2 | x4 DE F2 | D2 D2 C2 C2 | D2 D2 D2 ^C2 | D4 D2 =C2 | %23
 =F3 E F2 G2 | C2 D2 C4 | x8 | F8 | D2 x4 D2 | D2 C2 D3 C | =B,4 B,2 B,2 | !courtesy!=B,6 :| %31
V:3
 C,2 |:[I:staff -1] D2 C2[I:staff +1] B,2[I:staff -1] C2 | D2[I:staff +1] B,2 A,2 B,2 | %3
 C2 D2 C2 A,B, | C2 C2 D2 D2 | B,2 A,2 G,2 A,2 |[I:staff -1] C2 D2[I:staff +1] C2 B,2 | %7
 A,4 A,2 A,2 | A,4 A,2[I:staff -1] [C=E]2 | [DF]2[I:staff +1] G,A, B,C D2 | D2- DE F2 D2 | %11
[I:staff -1] D4 C2 F2 |[I:staff +1] C2 C2 D2 C2 | B,2 G,2 D3 C | B,2 A,G, A,4 | G,2 F,2 _E,4 |1 %16
 D,2 B,2[I:staff -1] [C_E]2 [CE]2 :|2[I:staff +1] D,6 |:[I:staff -1] [DF]2 | %19
 [CF]2 [CF]2[I:staff +1] A,2 C2 | B,2 B,2 G,2 G,2 | A,2 A,2 A,4 | A,4 A,=B, C2 | C4 C2 _B,2 | %24
 A,4 G,2 F,2 |[I:staff -1] [DF]4 [DF]2 [CF]2 | D4 C4 | %27
[I:staff +1] B,2[I:staff -1] [DF]2 [CF]2[I:staff +1] B,2 | A,2 G,2 A,G,A,A, | G,4 G,2 G,2 | G,6 :| %31
V:4
 x2 |: B,,3 C, D,2 _E,2 | B,,2 B,,2 F,2 G,2 | F,2 D,E, F,2 F,2 | F,G, A,2 G,2 D,2 | %5
 _E,2 E,2 E,2 D,2 | C,2 B,,2 F,2 G,2 | D,4 D,2 D,2 | D,4 D,2 C,2 | B,,2 _E,F, G,A, B,2 | %10
 G,A, B,2 F,2 G,2 | D,E,F,G, A,2 D,2 | A,2 A,2 B,2 F,2 | G,2 C,2 D,4 | D,2 _E,2 D,4 | %15
 G,,2 B,,2 C,4 |1 G,,4 C,2 C,2 :|2 G,,6 |: B,,2 | F,2 F,2 D,2 F,2 | G,2 G,2 C,2 E,2 | %21
 D,2 D,2 D,2 A,,2 | D,4 D,2 E,2 | F,3 G, F,2 _E,2 | F,2 D,2 _E,2 F,2 | B,,4 B,,2 F,2 | B,,4 F,4 | %27
 G,2 D,2 F,2 G,2 | D,2 _E,2 D,4 | G,,4 G,,2 G,,2 | G,,6 :| %31

